X:1
T:Blues for Muse(Score)
T:Blues for Muse(Score)
T:George Hess
C:George Hess
%%score [ 1 { 2 | 3 } 4 ( 5 6 ) ]
L:1/8
Q:1/4=108
M:4/4
K:E
V:1 treble-8 transpose=-12 nm="Tenor Saxophone" snm="T. Sax."
V:2 treble-8 nm="Electric Guitar" snm="El. Guit."
V:3 tab stafflines=6 strings=E2,A2,D3,G3,B3,E4 
V:4 bass-8 transpose=-12 nm="Bass Guitar" snm="B. Guit."
V:5 perc nm="Drumset" snm="D. Set"
K:none
I:percmap ^g g 42 x
I:percmap c c 38 normal
V:6 perc 
K:none
I:percmap F F 36 normal
V:1
!f!"^Swing" z B |:S =dede- e4 | !>!.e =d3 Bd^de- | e8 | z4 z2 z e | =gaga- a4 | a =g3 eB=de- | e8 | %8
 z4 z2 z _B!dacoda! | B=dBB- B4 | (3(e2 =d2 B2 (3A2 B2 =G2 |1 E8) | z4 z2 z B :|2 E8 || z8 || %15
"E7""^B" !stemless!b2 !stemless!b2 !stemless!b2 !stemless!b2 | %16
 !stemless!b2 !stemless!b2 !stemless!b2 !stemless!b2 | %17
 !stemless!b2 !stemless!b2 !stemless!b2 !stemless!b2 | %18
 !stemless!b2 !stemless!b2 !stemless!b2 !stemless!b2 | %19
"A7" !stemless!b2 !stemless!b2 !stemless!b2 !stemless!b2 | %20
 !stemless!b2 !stemless!b2 !stemless!b2 !stemless!b2 | %21
"E7" !stemless!b2 !stemless!b2 !stemless!b2 !stemless!b2 | %22
 !stemless!b2 !stemless!b2 !stemless!b2 !stemless!b2 | %23
"B7" !stemless!b2 !stemless!b2 !stemless!b2 !stemless!b2 | %24
"A7" !stemless!b2 !stemless!b2 !stemless!b2 !stemless!b2 | %25
"E7" !stemless!b2 !stemless!b2 !stemless!b2 !stemless!b2 | %26
"B7" !stemless!b2 !stemless!b2 !stemless!b2 !stemless!b2!D.S.! ||O B=dBB- B4 | %28
!>(!!>(! (3(e2 =d2 B2 (3A2 B2 =G2!>)! | E2)!>)! z2 z4 | z2 z =g- !fermata!g4 |] %31
V:2
!mf! z2 |:"E7" [E,B,]B,[E,C]C [E,B,]B,[E,C]C | x8 | x8 | x8 |"A7" [A,E]E[A,F]F [A,E]E[A,F]F | x8 | %7
"E7" [E,B,]B,[E,C]C [E,B,]B,[E,C]C | x8 |"B7" [B,F]F[B,G]G [B,F]F[B,G]G | %10
"A7" [A,E]E[A,F]F [A,E]E[A,F]F |1"E7" [E,B,]B,[E,C]C [E,B,]B,[E,C]C | %12
"B7" z F[B,G]G [B,F]F[B,G]G :|2"E7" [E,B,]B,[E,C]C [E,B,]B,[E,C]C ||"B7" z F[B,G]G [B,F]F[B,G]G || %15
"E7" [E,B,]B,[E,C]C [E,B,]B,[E,C]C | x8 | x8 | x8 |"A7" [A,E]E[A,F]F [A,E]E[A,F]F | x8 | %21
"E7" [E,B,]B,[E,C]C [E,B,]B,[E,C]C | x8 |"B7" [B,F]F[B,G]G [B,F]F[B,G]G | %24
"A7" [A,E]E[A,F]F [A,E]E[A,F]F |"E7" [E,B,]B,[E,C]C [E,B,]B,[E,C]C |"B7" z F[B,G]G [B,F]F[B,G]G || %27
"B7" [B,F]F[B,G]G [B,F]F[B,G]G |"A7" [A,E] z z6 | E2 G,2 A,2 ^A,2 | %30
 B,2 z"E7#9" [EGd=g] !fermata!z2 x x |] %31
V:3
 x2 |: [!6!E,,!5!B,,]!5!B,,[!6!E,,!5!C,]!5!C, [!6!E,,!5!B,,]!5!B,,[!6!E,,!5!C,]!5!C, | x8 | x8 | %4
 x8 | [!5!A,,!4!E,]!4!E,[!5!A,,!4!F,]!4!F, [!5!A,,!4!E,]!4!E,[!5!A,,!4!F,]!4!F, | x8 | %7
 [!6!E,,!5!B,,]!5!B,,[!6!E,,!5!C,]!5!C, [!6!E,,!5!B,,]!5!B,,[!6!E,,!5!C,]!5!C, | x8 | %9
 [!5!B,,!4!F,]!4!F,[!5!B,,!3!G,]!3!G, [!5!B,,!4!F,]!4!F,[!5!B,,!3!G,]!3!G, | %10
 [!5!A,,!4!E,]!4!E,[!5!A,,!4!F,]!4!F, [!5!A,,!4!E,]!4!E,[!5!A,,!4!F,]!4!F, |1 %11
 [!6!E,,!5!B,,]!5!B,,[!6!E,,!5!C,]!5!C, [!6!E,,!5!B,,]!5!B,,[!6!E,,!5!C,]!5!C, | %12
 x !4!F,[!5!B,,!3!G,]!3!G, [!5!B,,!4!F,]!4!F,[!5!B,,!3!G,]!3!G, :|2 %13
 [!6!E,,!5!B,,]!5!B,,[!6!E,,!5!C,]!5!C, [!6!E,,!5!B,,]!5!B,,[!6!E,,!5!C,]!5!C, || %14
 x !4!F,[!5!B,,!3!G,]!3!G, [!5!B,,!4!F,]!4!F,[!5!B,,!3!G,]!3!G, || %15
 [!6!E,,!5!B,,]!5!B,,[!6!E,,!5!C,]!5!C, [!6!E,,!5!B,,]!5!B,,[!6!E,,!5!C,]!5!C, | x8 | x8 | x8 | %19
 [!5!A,,!4!E,]!4!E,[!5!A,,!4!F,]!4!F, [!5!A,,!4!E,]!4!E,[!5!A,,!4!F,]!4!F, | x8 | %21
 [!6!E,,!5!B,,]!5!B,,[!6!E,,!5!C,]!5!C, [!6!E,,!5!B,,]!5!B,,[!6!E,,!5!C,]!5!C, | x8 | %23
 [!5!B,,!4!F,]!4!F,[!5!B,,!3!G,]!3!G, [!5!B,,!4!F,]!4!F,[!5!B,,!3!G,]!3!G, | %24
 [!5!A,,!4!E,]!4!E,[!5!A,,!4!F,]!4!F, [!5!A,,!4!E,]!4!E,[!5!A,,!4!F,]!4!F, | %25
 [!6!E,,!5!B,,]!5!B,,[!6!E,,!5!C,]!5!C, [!6!E,,!5!B,,]!5!B,,[!6!E,,!5!C,]!5!C, | %26
 x !4!F,[!5!B,,!3!G,]!3!G, [!5!B,,!4!F,]!4!F,[!5!B,,!3!G,]!3!G, || %27
 [!5!B,,!4!F,]!4!F,[!5!B,,!3!G,]!3!G, [!5!B,,!4!F,]!4!F,[!5!B,,!3!G,]!3!G, | %28
 [!5!A,,!4!E,] x [xx]6 | !4!E,2 !6!G,,2 !5!A,,2 !5!^A,,2 | %30
 !5!B,,2 x [!4!E,!3!G,!2!D!1!=G] !fermata![xxx]4 |] %31
V:4
!mf! z2 |:"E7" E,E,E,E, E,E,E,E, | x8 | x8 | x8 |"A7" A,A,A,A, A,A,A,A, | x8 | %7
"E7" E,E,E,E, E,E,E,E, | x8 |"B7" B,B,B,B, B,B,B,B, |"A7" A,A,A,A, A,A,A,A, |1 %11
"E7" E,E,E,E, E,E,E,E, |"B7" z B,B,B, B,B,B,B, :|2"E7" E,E,E,E, E,E,E,E, || %14
"B7" z B,B,B, B,B,B,B, ||"E7" E,E,E,E, E,E,E,E, | x8 | x8 | x8 |"A7" A,A,A,A, A,A,A,A, | x8 | %21
"E7" E,E,E,E, E,E,E,E, | x8 |"B7" B,B,B,B, B,B,B,B, |"A7" A,A,A,A, A,A,A,A, | %25
"E7" E,E,E,E, E,E,E,E, |"B7" z B,B,B, B,B,B,B, ||"B7" B,B,B,B, B,B,B,B, |"A7" A, z z2 z4 | %29
 E,2 G,,2 A,,2 ^A,,2 | B,,2 z E,- !fermata!E,4 |] %31
V:5
[K:C]!mf! z2 |: ^g^g[c^g]^g ^g^g[c^g]^g | x8 | x8 | x8 | ^g^g[c^g]^g ^g^g[c^g]^g | x8 | %7
 ^g^g[c^g]^g ^g^g[c^g]^g | x8 | ^g^g[c^g]^g ^g^g[c^g]^g | ^g^g[c^g]^g ^g^g[c^g]^g |1 %11
 ^g^g[c^g]^g ^g^g[c^g]^g | ^g^g[c^g]^g ^g^g[c^g]^g :|2 ^g^g[c^g]^g ^g^g[c^g]^g || %14
 ^g^g[c^g]^g ^g^g[c^g]^g || ^g^g[c^g]^g ^g^g[c^g]^g | x8 | x8 | x8 | ^g^g[c^g]^g ^g^g[c^g]^g | x8 | %21
 ^g^g[c^g]^g ^g^g[c^g]^g | x8 | ^g^g[c^g]^g ^g^g[c^g]^g | ^g^g[c^g]^g ^g^g[c^g]^g | %25
 ^g^g[c^g]^g ^g^g[c^g]^g | ^g^g[c^g]^g ^g^g[c^g]^g || ^g^g[c^g]^g ^g^g[c^g]^g | ^g z z2 z4 | %29
 ^g z z2 z4 | ^g2 z ^g- !///!!fermata!^g4 |] %31
V:6
[K:C] x2 |: F2 z F F2 z2 | x8 | x8 | x8 | F2 z F F2 z2 | x8 | F2 z F F2 z2 | x8 | F2 z F F2 z2 | %10
 F2 z F F2 z2 |1 F2 z F F2 z2 | F2 z F F2 z2 :|2 F2 z F F2 z2 || F2 z F F2 z2 || F2 z F F2 z2 | %16
 x8 | x8 | x8 | F2 z F F2 z2 | x8 | F2 z F F2 z2 | x8 | F2 z F F2 z2 | F2 z F F2 z2 | %25
 F2 z F F2 z2 | F2 z F F2 z2 || F2 z F F2 z2 | F2 z2 z4 | F2 z2 z4 | F2 z F z4 |] %31

